src/lib/packages/icons/src/assets/line/coupon-percent.svg

<svg width="24" height="24" viewBox="0 0 24 24" fill="none" xmlns="http://www.w3.org/2000/svg">
<path d="M18 20.75H6C3.582 20.75 2.25 19.418 2.25 17V13.25H3C3.689 13.25 4.25 12.689 4.25 12C4.25 11.311 3.689 10.75 3 10.75H2.25V7C2.25 4.582 3.582 3.25 6 3.25H18C20.418 3.25 21.75 4.582 21.75 7V10.75H21C20.311 10.75 19.75 11.311 19.75 12C19.75 12.689 20.311 13.25 21 13.25H21.75V17C21.75 19.418 20.418 20.75 18 20.75ZM3.75 14.646V17C3.75 18.577 4.423 19.25 6 19.25H18C19.577 19.25 20.25 18.577 20.25 17V14.646C19.097 14.319 18.25 13.257 18.25 12C18.25 10.743 19.097 9.681 20.25 9.354V7C20.25 5.423 19.577 4.75 18 4.75H6C4.423 4.75 3.75 5.423 3.75 7V9.354C4.903 9.681 5.75 10.743 5.75 12C5.75 13.257 4.903 14.319 3.75 14.646ZM10.03 15.03L15.03 10.03C15.323 9.737 15.323 9.26199 15.03 8.96899C14.737 8.67599 14.262 8.67599 13.969 8.96899L8.96899 13.969C8.67599 14.262 8.67599 14.737 8.96899 15.03C9.11499 15.176 9.30702 15.25 9.49902 15.25C9.69102 15.25 9.88403 15.177 10.03 15.03ZM10.5 9.5C10.5 8.948 10.054 8.5 9.50195 8.5H9.49194C8.94194 8.5 8.49902 8.948 8.49902 9.5C8.49902 10.052 8.95098 10.5 9.50098 10.5C10.054 10.5 10.5 10.052 10.5 9.5ZM15.5 14.5C15.5 13.948 15.054 13.5 14.502 13.5H14.4919C13.9419 13.5 13.499 13.948 13.499 14.5C13.499 15.052 13.951 15.5 14.501 15.5C15.054 15.5 15.5 15.052 15.5 14.5Z" fill="currentColor"/>
</svg>

<svg xmlns="http://www.w3.org/2000/svg" width="24" height="24" fill="none"><path fill="currentColor" d="M18 20.75H6c-2.418 0-3.75-1.332-3.75-3.75v-3.75H3c.689 0 1.25-.561 1.25-1.25S3.689 10.75 3 10.75h-.75V7c0-2.418 1.332-3.75 3.75-3.75h12c2.418 0 3.75 1.332 3.75 3.75v3.75H21c-.689 0-1.25.561-1.25 1.25s.561 1.25 1.25 1.25h.75V17c0 2.418-1.332 3.75-3.75 3.75ZM3.75 14.646V17c0 1.577.673 2.25 2.25 2.25h12c1.577 0 2.25-.673 2.25-2.25v-2.354a2.754 2.754 0 0 1-2-2.646c0-1.257.847-2.319 2-2.646V7c0-1.577-.673-2.25-2.25-2.25H6c-1.577 0-2.25.673-2.25 2.25v2.354c1.153.327 2 1.389 2 2.646a2.754 2.754 0 0 1-2 2.646Zm6.28.384 5-5a.75.75 0 1 0-1.061-1.061l-5 5a.75.75 0 1 0 1.061 1.061Zm.47-5.53c0-.552-.446-1-.998-1h-.01a.996.996 0 0 0-.993 1c0 .552.452 1 1.002 1a.999.999 0 0 0 .999-1Zm5 5c0-.552-.446-1-.998-1h-.01a.996.996 0 0 0-.993 1c0 .552.452 1 1.002 1a.999.999 0 0 0 .999-1Z"/></svg>
